Papirus-GTK/24x24/apps/kfourinline.svg

<svg height="24" width="24" xmlns="http://www.w3.org/2000/svg" xmlns:xlink="http://www.w3.org/1999/xlink"><linearGradient id="a" gradientTransform="translate(0 1)" gradientUnits="userSpaceOnUse" x1="24.292" x2="24.239" y1="22.121" y2="3.9509"><stop offset="0"/><stop offset="1" stop-opacity="0"/></linearGradient><linearGradient id="b" gradientTransform="matrix(0 .5 -.5 0 24 -.00000005)" gradientUnits="userSpaceOnUse" x1="24.089" x2="24.239" xlink:href="#a" y1="23.946" y2="3.9509"/><linearGradient id="c" gradientTransform="matrix(.5 0 0 .5 0 .50000005)" gradientUnits="userSpaceOnUse" x1="24.292" x2="24.239" xlink:href="#a" y1="22.121" y2="3.9509"/><rect fill="#66a6de" height="20" rx="1" transform="matrix(0 -1 -1 0 0 0)" width="20" x="-22" y="-22"/><path d="m3 2c-.554 0-1 .446-1 1v .5c0-.554.446-1 1-1h18c .554 0 1 .446 1 1v-.5c0-.554-.446-1-1-1z" fill="#fff" opacity=".2"/><path d="m3 22c-.554 0-1-.446-1-1v-.5c0 .554.446 1 1 1h18c .554 0 1-.446 1-1v .5c0 .554-.446 1-1 1z" opacity=".3"/><path d="m11 7.5a3.5 3.5 0 0 1 -3.5 3.5 3.5 3.5 0 0 1 -3.5-3.5 3.5 3.5 0 0 1  3.5-3.5 3.5 3.5 0 0 1  3.5 3.5z" fill="#fff"/><path d="m20 7.5a3.5 3.5 0 0 1 -3.5 3.5 3.5 3.5 0 0 1 -3.5-3.5 3.5 3.5 0 0 1  3.5-3.5 3.5 3.5 0 0 1  3.5 3.5z" fill="#c44d40"/><path d="m11 17a3.5 3.5 0 0 1 -3.5 3.5 3.5 3.5 0 0 1 -3.5-3.5 3.5 3.5 0 0 1  3.5-3.5 3.5 3.5 0 0 1  3.5 3.5z" fill="#4d4d4d"/><path d="m20 17a3.5 3.5 0 0 1 -3.5 3.5 3.5 3.5 0 0 1 -3.5-3.5 3.5 3.5 0 0 1  3.5-3.5 3.5 3.5 0 0 1  3.5 3.5z" fill="#c44d40"/><path d="m3 2.5000001c-.554 0-1 .446-1 1v8.4999999h20v-8.4999999c0-.554-.446-1-1-1z" fill="url(#c)" opacity=".1"/><path d="m22 3.0000001c0-.554-.446-1-1-1h-9v19.9999999h9c .554 0 1-.446 1-1z" fill="url(#b)" opacity=".1"/></svg>

<?xml version="1.0" encoding="UTF-8" standalone="no"?>
<!-- Created with Inkscape (http://www.inkscape.org/) -->

<svg
   xmlns:dc="http://purl.org/dc/elements/1.1/"
   xmlns:cc="http://creativecommons.org/ns#"
   xmlns:rdf="http://www.w3.org/1999/02/22-rdf-syntax-ns#"
   xmlns:svg="http://www.w3.org/2000/svg"
   xmlns="http://www.w3.org/2000/svg"
   xmlns:xlink="http://www.w3.org/1999/xlink"
   xmlns:sodipodi="http://sodipodi.sourceforge.net/DTD/sodipodi-0.dtd"
   xmlns:inkscape="http://www.inkscape.org/namespaces/inkscape"
   id="svg2817"
   height="24"
   width="24"
   version="1.0"
   inkscape:version="0.91 r13725"
   sodipodi:docname="kfourinline.svg">
  <sodipodi:namedview
     pagecolor="#ffffff"
     bordercolor="#666666"
     borderopacity="1"
     objecttolerance="10"
     gridtolerance="10"
     guidetolerance="10"
     inkscape:pageopacity="0"
     inkscape:pageshadow="2"
     inkscape:window-width="1600"
     inkscape:window-height="845"
     id="namedview20"
     showgrid="false"
     inkscape:zoom="1"
     inkscape:cx="-4.5254237"
     inkscape:cy="-0.20338983"
     inkscape:window-x="0"
     inkscape:window-y="32"
     inkscape:window-maximized="1"
     inkscape:current-layer="svg2817" />
  <metadata
     id="metadata57">
    <rdf:RDF>
      <cc:Work
         rdf:about="">
        <dc:format>image/svg+xml</dc:format>
        <dc:type
           rdf:resource="http://purl.org/dc/dcmitype/StillImage" />
        <dc:title />
      </cc:Work>
    </rdf:RDF>
  </metadata>
  <defs
     id="defs2819">
    <linearGradient
       id="linearGradient4191"
       x1="24.292"
       gradientUnits="userSpaceOnUse"
       y1="22.121"
       gradientTransform="translate(0,1)"
       x2="24.239"
       y2="3.9509">
      <stop
         id="stop4187"
         offset="0" />
      <stop
         id="stop4189"
         stop-opacity="0"
         offset="1" />
    </linearGradient>
    <linearGradient
       id="linearGradient4161"
       y2="3.9509"
       xlink:href="#linearGradient4191"
       gradientUnits="userSpaceOnUse"
       y1="23.946"
       gradientTransform="matrix(0,0.5,-0.5,0,24,-5e-8)"
       x2="24.239"
       x1="24.089" />
    <linearGradient
       id="linearGradient4178"
       y2="3.9509"
       xlink:href="#linearGradient4191"
       gradientUnits="userSpaceOnUse"
       x2="24.239"
       gradientTransform="matrix(0.5,0,0,0.5,0,0.50000005)"
       y1="22.121"
       x1="24.292" />
  </defs>
  <rect
     style="fill:#66a6de"
     id="rect4203-6"
     transform="matrix(0,-1,-1,0,0,0)"
     rx="1"
     ry="1"
     height="20"
     width="20"
     y="-22"
     x="-22" />
  <path
     style="opacity:0.2;fill:#ffffff"
     inkscape:connector-curvature="0"
     id="rect4592"
     d="M 3,2 C 2.446,2 2,2.446 2,3 l 0,0.5 c 0,-0.554 0.446,-1 1,-1 l 18,0 c 0.554,0 1,0.446 1,1 L 22,3 C 22,2.446 21.554,2 21,2 L 3,2 Z" />
  <path
     style="opacity:0.3"
     inkscape:connector-curvature="0"
     id="path4597"
     d="M 3,22 C 2.446,22 2,21.554 2,21 l 0,-0.5 c 0,0.554 0.446,1 1,1 l 18,0 c 0.554,0 1,-0.446 1,-1 l 0,0.5 c 0,0.554 -0.446,1 -1,1 L 3,22 Z" />
  <path
     style="fill:#ffffff"
     inkscape:connector-curvature="0"
     id="path4183"
     d="M 11,7.5 A 3.5,3.5 0 0 1 7.5,11 3.5,3.5 0 0 1 4,7.5 3.5,3.5 0 0 1 7.5,4 3.5,3.5 0 0 1 11,7.5 Z" />
  <path
     style="fill:#c44d40"
     inkscape:connector-curvature="0"
     id="path4186"
     d="M 20,7.5 A 3.5,3.5 0 0 1 16.5,11 3.5,3.5 0 0 1 13,7.5 3.5,3.5 0 0 1 16.5,4 3.5,3.5 0 0 1 20,7.5 Z" />
  <path
     style="fill:#4d4d4d"
     inkscape:connector-curvature="0"
     id="path4194"
     d="M 11,17 A 3.5,3.5 0 0 1 7.5,20.5 3.5,3.5 0 0 1 4,17 3.5,3.5 0 0 1 7.5,13.5 3.5,3.5 0 0 1 11,17 Z" />
  <path
     style="fill:#c44d40"
     inkscape:connector-curvature="0"
     id="path4196"
     d="M 20,17 A 3.5,3.5 0 0 1 16.5,20.5 3.5,3.5 0 0 1 13,17 3.5,3.5 0 0 1 16.5,13.5 3.5,3.5 0 0 1 20,17 Z" />
  <path
     d="m 3,2.5000001 c -0.554,0 -1,0.446 -1,1 L 2,12 22,12 22,3.5000001 c 0,-0.554 -0.446,-1 -1,-1 l -18,0 z"
     id="path4026"
     style="opacity:0.1;fill:url(#linearGradient4178)"
     inkscape:connector-curvature="0" />
  <path
     d="m 22,3.0000001 c 0,-0.554 -0.446,-1 -1,-1 l -9,0 L 12,22 l 9,0 c 0.554,0 1,-0.446 1,-1 z"
     id="path4159"
     style="opacity:0.1;fill:url(#linearGradient4161)"
     inkscape:connector-curvature="0" />
</svg>
